svg/fluentui-system-icons/ic_fluent_text_grammar_arrow_left_24_filled.svg

<svg width="24" height="24" viewBox="0 0 24 24" fill="none" xmlns="http://www.w3.org/2000/svg">
<path d="M17.5 12C20.5376 12 23 14.4624 23 17.5C23 20.5376 20.5376 23 17.5 23C14.4624 23 12 20.5376 12 17.5C12 14.4624 14.4624 12 17.5 12ZM16.7192 14.5886L16.65 14.6464L14.1344 17.1628L14.0937 17.2134L14.0496 17.2901L14.0268 17.3488L14.0079 17.4341L14.0055 17.5443L14.0205 17.6296L14.0495 17.7098L14.0834 17.7711L14.1343 17.8371L16.65 20.3536C16.8452 20.5488 17.1618 20.5488 17.3571 20.3536C17.5306 20.18 17.5499 19.9106 17.4149 19.7157L17.3571 19.6464L15.711 18H20.5C20.7455 18 20.9496 17.8231 20.9919 17.5899L21 17.5C21 17.2545 20.8231 17.0504 20.5899 17.0081L20.5 17H15.711L17.3571 15.3536C17.5306 15.18 17.5499 14.9106 17.4149 14.7157L17.3571 14.6464C17.1835 14.4729 16.9141 14.4536 16.7192 14.5886ZM11.0189 17H3L2.88338 17.0067C2.38604 17.0645 2 17.4872 2 18C2 18.5523 2.44772 19 3 19H11.1739C11.0602 18.5185 11 18.0163 11 17.5C11 17.3318 11.0064 17.165 11.0189 17ZM11.4982 15H3C2.44772 15 2 14.5523 2 14C2 13.4872 2.38604 13.0645 2.88338 13.0067L3 13H12.8096C12.2573 13.5755 11.8099 14.2524 11.4982 15ZM3 11C2.44772 11 2 10.5523 2 10C2 9.48716 2.38604 9.06449 2.88338 9.00673L3 9H21C21.5523 9 22 9.44772 22 10C22 10.5128 21.614 10.9355 21.1166 10.9933L21 11H3ZM21 5H3L2.88338 5.00673C2.38604 5.06449 2 5.48716 2 6C2 6.55228 2.44772 7 3 7H21L21.1166 6.99327C21.614 6.93551 22 6.51284 22 6C22 5.44772 21.5523 5 21 5Z" fill="#212121"/>
</svg>

<svg xmlns="http://www.w3.org/2000/svg" width="24" height="24"><path d="M17.5 12a5.5 5.5 0 1 1 0 11 5.5 5.5 0 0 1 0-11Zm-.78 2.589-.07.057-2.516 2.517-.04.05-.044.077-.023.059-.02.085-.002.11.015.086.03.08.033.061.051.066 2.516 2.517a.5.5 0 0 0 .765-.638l-.058-.07L15.711 18H20.5a.5.5 0 0 0 .492-.41L21 17.5a.5.5 0 0 0-.41-.492L20.5 17h-4.789l1.646-1.646a.5.5 0 0 0 .058-.638l-.058-.07a.5.5 0 0 0-.638-.057ZM11.018 17H3l-.117.007A1 1 0 0 0 3 19h8.174a6.52 6.52 0 0 1-.155-2Zm.48-2H3a1 1 0 0 1-.117-1.993L3 13h9.81a6.49 6.49 0 0 0-1.312 2ZM3 11a1 1 0 0 1-.117-1.993L3 9h18a1 1 0 0 1 .117 1.993L21 11H3Zm18-6H3l-.117.007A1 1 0 0 0 3 7h18l.117-.007A1 1 0 0 0 21 5Z"/></svg>
